X:1
T:English Suite I Bourree I & II
T:BWV 806
T:J. S. Bach
%%score { 1 | ( 2 3 ) }
L:1/8
Q:1/4=200
M:4/4
K:A
V:1 treble nm="Harp"
V:2 bass 
V:3 bass 
V:1
"^Prestissimo" E2 | AGBA cBAG | A2 E2 CEAB | cBdc edcB | dcBc ABcd | e2{=g} f2 g/4f/4g/- g2 a | %6
 f2{a} g2 a/4g/4a/- a2 b | gaga b/4a/4b/4a/4b/4a/4b/4a/4 b/4a/4b/4a/4 g/a/ | b4 z2 E2 | AGBA cBAG | %10
 A2 E2 CEAB | cBdc edcB | dcBc AGBA | cBAG FEGF | AGFE ^DCED | FB, B2 A/4G/4A/4G/4A/4G/4A/4G/4 FE | %16
 E6 E2 | AGBA cBAG | A2 E2 CEAB | cBdc edcB | dcBc ABcd | e2{=g} f2 g/4f/4g/- g2 a | %22
 f2{a} g2 a/4g/4a/- a2 b | gaga b/4a/4b/4a/4b/4a/4b/4a/4 b/4a/4b/4a/4 g/a/ | b4 z2 E2 | AGBA cBAG | %26
 A2 E2 CEAB | cBdc edcB | dcBc AGBA | cBAG FEGF | AGFE ^DCED | FB, B2 A/4G/4A/4G/4A/4G/4A/4G/4 FE | %32
 E6 E2 | BAcB dc e2 | d/4c/4d/4c/4d/4c/4d/4c/4 Bc ABcd | edfe =gf a2 | %36
 g/4f/4g/4f/4g/4f/4g/4f/4 ef d2 f2 | fdcB dced | ecB^A cBdc | edcB dcB^A | B6 B2 | fegf ag b2 | %42
 a/4g/4a/4g/4a/4g/4a/4g/4 fg e2 E2 | BAcB dc e2 | d/4c/4d/4c/4d/4c/4d/4c/4 Bc ABcd | ecBA edfe | %46
 =gcBA dced | fcBA edfe | =gcBA dced | fdcB fegf | a^dcB edfe | g^dcB fegf | a^dcB edfe | %53
 gfef gfag | bagf agfe | a3 b a/4g/4f/4g/4a/4g/4a/4g/4 a/4g/4f/4g/4 a | a6 e2 | ecBA cBdc | %58
 dBAG BAcB | dcBA cBAG | AEFG ABcd | ecBA cBdc | dBAG BAcB | dcBA cB B/4A/4B/4A/4G | %64
 A/4G/4A3/2- A4 E2 | BAcB dc e2 | d/4c/4d/4c/4d/4c/4d/4c/4 Bc ABcd | edfe =gf a2 | %68
 g/4f/4g/4f/4g/4f/4g/4f/4 ef d2 f2 | fdcB dced | ecB^A cBdc | edcB dcB^A | B6 B2 | fegf ag b2 | %74
 a/4g/4a/4g/4a/4g/4a/4g/4 fg e2 E2 | BAcB dc e2 | d/4c/4d/4c/4d/4c/4d/4c/4 Bc ABcd | ecBA edfe | %78
 =gcBA dced | fcBA edfe | =gcBA dced | fdcB fegf | a^dcB edfe | g^dcB fegf | a^dcB edfe | %85
 gfef gfag | bagf agfe | a3 b a/4g/4f/4g/4a/4g/4a/4g/4 a/4g/4f/4g/4 a | a6 e2 | ecBA cBdc | %90
 dBAG BAcB | dcBA cBAG | AEFG ABcd | ecBA cBdc | dBAG BAcB | dcBA cB B/4A/4B/4A/4G | %96
 A/4G/4A3/2- A4 =CD |[K:C] E2 F2 E2 D2 | E2 A,4 ^G,2 | A,2 F2 E2 D2 | E2 A,4 ^G,2 | A,2 F2 E2 D2 | %102
 A2 GF E2 D2 | D/4C/4D/4C/4D/4C/4D/4C/4 B,C DB,CA, | B,A,^G,A, B,CDB, | CDEF EDCD | EDCB, A,B,CD | %107
 EFGA GFEF | GFED CDE^F | GABc BAGA | BAG^F E^DEF | B,2 G2- G^F F/4E/4F/4E/4^D | E6 CD | %113
 E2 F2 E2 D2 | E2 A,4 ^G,2 | A,2 F2 E2 D2 | E2 A,4 ^G,2 | A,2 F2 E2 D2 | A2 GF E2 D2 | %119
 D/4C/4D/4C/4D/4C/4D/4C/4 B,C DB,CA, | B,A,^G,A, B,CDB, | CDEF EDCD | EDCB, A,B,CD | EFGA GFEF | %124
 GFED CDE^F | GABc BAGA | BAG^F E^DEF | B,2 G2- G^F F/4E/4F/4E/4^D | E6 ED | ^C2 B,2 C2 D2 | %130
 EG _B4 AG | FEFd ^cBAG | FGAG FEDC | B,2 B,A, B,2 B,C | DF A4 GF | EDEc BAGF | EFGF EDCB, | %137
 A,GFE F2 A,2 |[I:staff +1] ^G,^F,G,F E2 =G,2 | ^F,E,=F,[I:staff -1]E DCB,A, | A^G^FE B2 ED | %141
 E2 d2 c2 B2 | c2 E4 DC | D2 c2 BA^GA | B2 D4 CB, | CAGE FEDC | B,FEC DCB,A, | ^G,DCA, CB,A,G, | %148
 A,6 ED | ^C2 B,2 C2 D2 | EG _B4 AG | FEFd ^cBAG | FGAG FEDC | B,2 B,A, B,2 B,C | DF A4 GF | %155
 EDEc BAGF | EFGF EDCB, | A,GFE F2 A,2 |[I:staff +1] ^G,^F,G,F E2 =G,2 | %159
 ^F,E,=F,[I:staff -1]E DCB,A, | A^G^FE B2 ED | E2 d2 c2 B2 | c2 E4 DC | D2 c2 BA^GA | B2 D4 CB, | %165
 CAGE FEDC | B,FEC DCB,A, | ^G,DCA, CB,A,G, | A,6 E2 |[K:A] AGBA cBAG | A2 E2 CEAB | cBdc edcB | %172
 dcBc ABcd | e2{=g} f2 g/4f/4g/- g2 a | f2{a} g2 a/4g/4a/- a2 b | %175
 gaga b/4a/4b/4a/4b/4a/4b/4a/4 b/4a/4b/4a/4 g/a/ | b4 z2 E2 | AGBA cBAG | A2 E2 CEAB | cBdc edcB | %180
 dcBc AGBA | cBAG FEGF | AGFE ^DCED | FB, B2 A/4G/4A/4G/4A/4G/4A/4G/4 FE | E6 E2 | BAcB dc e2 | %186
 d/4c/4d/4c/4d/4c/4d/4c/4 Bc ABcd | edfe =gf a2 | g/4f/4g/4f/4g/4f/4g/4f/4 ef d2 f2 | fdcB dced | %190
 ecB^A cBdc | edcB dcB^A | B6 B2 | fegf ag b2 | a/4g/4a/4g/4a/4g/4a/4g/4 fg e2 E2 | BAcB dc e2 | %196
 d/4c/4d/4c/4d/4c/4d/4c/4 Bc ABcd | ecBA edfe | =gcBA dced | fcBA edfe | =gcBA dced | fdcB fegf | %202
 a^dcB edfe | g^dcB fegf | a^dcB edfe | gfef gfag | bagf agfe | %207
 a3 b a/4g/4f/4g/4a/4g/4a/4g/4 a/4g/4f/4g/4 a | a6 e2 | ecBA cBdc | dBAG BAcB | dcBA cBAG | %212
 AEFG ABcd | ecBA cBdc | dBAG BAcB | dcBA cB B/4A/4B/4A/4G | A/4G/4A3/2- A4 z2 |] %217
V:2
 z2 | z8 | z2 z4 E,2 | A,G,B,A, CB,A,G, | A,2 E,2 C,E,A,B, | CB,DC EDCA, | DCED FE^DB, | %7
 EFED CB,CA, | E^DFE GFE=D | CB,DC EDCB, | CDCB, A,2 E,2 | A,G,B,A, CB,A,G, | A,2 E,2 C,2 E,2 | %13
 A,,2 E,2 A,G,B,A, | CB,A,G, F,E,G,F, | A,G,F,E, B,2 B,,2 | E,^D,F,E, G,F,E,=D, | %17
 D,/4C,/4D,/4C,/4D,/4C,/4D,/4C,/4 B,,C, A,,2 z2 | z2 z4 E,2 | A,G,B,A, CB,A,G, | A,2 E,2 C,E,A,B, | %21
 CB,DC EDCA, | DCED FE^DB, | EFED CB,CA, | E^DFE GFE=D | CB,DC EDCB, | CDCB, A,2 E,2 | %27
 A,G,B,A, CB,A,G, | A,2 E,2 C,2 E,2 | A,,2 E,2 A,G,B,A, | CB,A,G, F,E,G,F, | A,G,F,E, B,2 B,,2 | %32
 E,6 z2 | z2 z4 E,2 | A,G,B,A, CB, E2 | D/4C/4D/4C/4D/4C/4D/4C/4 B,C A,2 A,,2 | D,C,E,D, F,D, D2 | %37
 =G,,4 z2 C2 | F,,4 z2 B,2 | =G,2 D,2 E,2 F,2 | B,,^A,,C,B,, D,C, E,2 | %41
 E,/4^D,/4E,/4D,/4E,/4D,/4E,/4D,/4 E,/4D,/4E,/4D,/4E,/4D,/4E,/4D,/4 z2 B,,2 | E,^D,F,E, G,F, A,2 | %43
 A,/4G,/4A,/4G,/4A,/4G,/4A,/4G,/4 A,/4G,/4A,/4G,/4A,/4G,/4A,/4G,/4 z2 E,2 | A,G,B,A, CB, E2 | %45
 D/4C/4D/4C/4D/4C/4D/4C/4 D2 C2 B,2 | A,2 A,2 A,2 A,2 | A,2 A,2 A,2 A,2 | A,2 =G,2 F,2 E,2 | %49
 D,2 E,2 D,2 C,2 | B,,2 B,,2 B,,2 B,,2 | B,,2 B,,2 B,,2 B,,2 | B,,2 A,,2 G,,2 F,,2 | %53
 E,,2 E,,2 E,,2 E,,2 | D,,2 D,,2 D,,2 D,2 | C,2 E,/4D,/4C,/4D,/4E,/4D,/4C,/4D,/4 E,2 E,,2 | %56
 A,,E,F,G, A,B, C2 | F,,4 z2 B,2 | E,,4 z2 A,2 | F,2 C,2 D,2 E,2 | A,,G,,A,,B,, C,D,E,C, | %61
 F,4 z2 B,,2 | E,4 z2 A,,2 | F,,2 C,,2 D,,2 E,,2 | z2 E,,2 A,,2 z2 | z2 z4 E,2 | A,G,B,A, CB, E2 | %67
 D/4C/4D/4C/4D/4C/4D/4C/4 B,C A,2 A,,2 | D,C,E,D, F,D, D2 | =G,,4 z2 C2 | F,,4 z2 B,2 | %71
 =G,2 D,2 E,2 F,2 | B,,^A,,C,B,, D,C, E,2 | %73
 E,/4^D,/4E,/4D,/4E,/4D,/4E,/4D,/4 E,/4D,/4E,/4D,/4E,/4D,/4E,/4D,/4 z2 B,,2 | E,^D,F,E, G,F, A,2 | %75
 A,/4G,/4A,/4G,/4A,/4G,/4A,/4G,/4 A,/4G,/4A,/4G,/4A,/4G,/4A,/4G,/4 z2 E,2 | A,G,B,A, CB, E2 | %77
 D/4C/4D/4C/4D/4C/4D/4C/4 D2 C2 B,2 | A,2 A,2 A,2 A,2 | A,2 A,2 A,2 A,2 | A,2 =G,2 F,2 E,2 | %81
 D,2 E,2 D,2 C,2 | B,,2 B,,2 B,,2 B,,2 | B,,2 B,,2 B,,2 B,,2 | B,,2 A,,2 G,,2 F,,2 | %85
 E,,2 E,,2 E,,2 E,,2 | D,,2 D,,2 D,,2 D,2 | C,2 E,/4D,/4C,/4D,/4E,/4D,/4C,/4D,/4 E,2 E,,2 | %88
 A,,E,F,G, A,B, C2 | F,,4 z2 B,2 | E,,4 z2 A,2 | F,2 C,2 D,2 E,2 | A,,G,,A,,B,, C,D,E,C, | %93
 F,4 z2 B,,2 | E,4 z2 A,,2 | F,,2 C,,2 D,,2 E,,2 | z2 E,,2 A,,2 E,D, | %97
[K:C] C,B,,A,,B,, C,B,,A,,B,, | C,B,,A,,B,, C,D,E,D, | C,B,,A,,B,, C,B,,A,,B,, | %100
 C,B,,A,,B,, C,D,E,D, | C,B,,A,,B,, C,B,,A,,B,, | C,B,,A,,B,, C,D,E,F, | %103
 E,D,C,B,, B,,/4A,,/4B,,/4A,,/4^G,, A,,2 | E,,4- E,,2 E,F, | E,2 D,2 C,2 B,,2 | %106
 C,2 A,,B,, C,D,E,F, | G,2 F,2 E,2 D,2 | E,2 C,D, E,^F,G,A, | B,2 A,2 G,2 ^F,2 | G,2 E,2 C2 A,2- | %111
 A,G,^F,E, B,2 B,,2 | E,2 B,,2 E,,2 E,D, | C,B,,A,,B,, C,B,,A,,B,, | C,B,,A,,B,, C,D,E,D, | %115
 C,B,,A,,B,, C,B,,A,,B,, | C,B,,A,,B,, C,D,E,D, | C,B,,A,,B,, C,B,,A,,B,, | C,B,,A,,B,, C,D,E,F, | %119
 E,D,C,B,, B,,/4A,,/4B,,/4A,,/4^G,, A,,2 | E,,4- E,,2 E,F, | E,2 D,2 C,2 B,,2 | %122
 C,2 A,,B,, C,D,E,F, | G,2 F,2 E,2 D,2 | E,2 C,D, E,^F,G,A, | B,2 A,2 G,2 ^F,2 | G,2 E,2 C2 A,2- | %127
 A,G,^F,E, B,2 B,,2 | E,2 B,,2 E,,2 E,F, | G,F,E,F, G,F,E,F, | G,F,E,F, G,2 ^C,2 | %131
 D,2 B,,2 G,,2 A,,2 | D,,4- D,,2 D,E, | F,E,D,E, F,E,D,E, | F,E,D,E, F,G,A,B, | C2 A,2 F,2 G,2 | %136
 C,4- C,F,E,D, | C,B,, C,2- C,E,D,C, | B,,A,, B,,2- B,,D,C,B,, | A,,^G,, A,,2- A,,B,,C,D, | %140
 E,^D, E,2- E,=D,C,B,, | A,,^G,,^F,,G,, A,,G,,F,,G,, | A,,B,,C,D, E,^F,^G,A, | ^G,A,B,A, G,A,B,A, | %144
 ^G,^F,E,D, C,B,,A,,^G,, | A,,2 C,2 B,,2 A,,2 | ^G,,2 A,,2 F,,2 D,,2 | E,,2 A,,2 E,2 E,,2 | %148
 A,,6 E,F, | G,F,E,F, G,F,E,F, | G,F,E,F, G,2 ^C,2 | D,2 B,,2 G,,2 A,,2 | D,,4- D,,2 D,E, | %153
 F,E,D,E, F,E,D,E, | F,E,D,E, F,G,A,B, | C2 A,2 F,2 G,2 | C,4- C,F,E,D, | C,B,, C,2- C,E,D,C, | %158
 B,,A,, B,,2- B,,D,C,B,, | A,,^G,, A,,2- A,,B,,C,D, | E,^D, E,2- E,=D,C,B,, | %161
 A,,^G,,^F,,G,, A,,G,,F,,G,, | A,,B,,C,D, E,^F,^G,A, | ^G,A,B,A, G,A,B,A, | %164
 ^G,^F,E,D, C,B,,A,,^G,, | A,,2 C,2 B,,2 A,,2 | ^G,,2 A,,2 F,,2 D,,2 | E,,2 A,,2 E,2 E,,2 | %168
 A,,6 z2 |[K:A] z8 | z2 z4 E,2 | A,G,B,A, CB,A,G, | A,2 E,2 C,E,A,B, | CB,DC EDCA, | DCED FE^DB, | %175
 EFED CB,CA, | E^DFE GFE=D | CB,DC EDCB, | CDCB, A,2 E,2 | A,G,B,A, CB,A,G, | A,2 E,2 C,2 E,2 | %181
 A,,2 E,2 A,G,B,A, | CB,A,G, F,E,G,F, | A,G,F,E, B,2 B,,2 | E,6 z2 | z2 z4 E,2 | A,G,B,A, CB, E2 | %187
 D/4C/4D/4C/4D/4C/4D/4C/4 B,C A,2 A,,2 | D,C,E,D, F,D, D2 | =G,,4 z2 C2 | F,,4 z2 B,2 | %191
 =G,2 D,2 E,2 F,2 | B,,^A,,C,B,, D,C, E,2 | %193
 E,/4^D,/4E,/4D,/4E,/4D,/4E,/4D,/4 E,/4D,/4E,/4D,/4E,/4D,/4E,/4D,/4 z2 B,,2 | E,^D,F,E, G,F, A,2 | %195
 A,/4G,/4A,/4G,/4A,/4G,/4A,/4G,/4 A,/4G,/4A,/4G,/4A,/4G,/4A,/4G,/4 z2 E,2 | A,G,B,A, CB, E2 | %197
 D/4C/4D/4C/4D/4C/4D/4C/4 D2 C2 B,2 | A,2 A,2 A,2 A,2 | A,2 A,2 A,2 A,2 | A,2 =G,2 F,2 E,2 | %201
 D,2 E,2 D,2 C,2 | B,,2 B,,2 B,,2 B,,2 | B,,2 B,,2 B,,2 B,,2 | B,,2 A,,2 G,,2 F,,2 | %205
 E,,2 E,,2 E,,2 E,,2 | D,,2 D,,2 D,,2 D,2 | C,2 E,/4D,/4C,/4D,/4E,/4D,/4C,/4D,/4 E,2 E,,2 | %208
 A,,E,F,G, A,B, C2 | F,,4 z2 B,2 | E,,4 z2 A,2 | F,2 C,2 D,2 E,2 | A,,G,,A,,B,, C,D,E,C, | %213
 F,4 z2 B,,2 | E,4 z2 A,,2 | F,,2 C,,2 D,,2 E,,2 | z2 E,,2 A,,2 z2 |] %217
V:3
 x2 | x8 | x8 | x8 | x8 | x8 | x8 | x8 | x8 | x8 | x8 | x8 | x8 | x8 | x8 | x8 | x8 | x8 | x8 | %19
 x8 | x8 | x8 | x8 | x8 | x8 | x8 | x8 | x8 | x8 | x8 | x8 | x8 | z2 B,,2 E,,2 z2 | x8 | x8 | x8 | %36
 x8 | x8 | x8 | x8 | x8 | x8 | x8 | x8 | x8 | x8 | x8 | x8 | x8 | x8 | x8 | x8 | x8 | x8 | x8 | %55
 x8 | x8 | x8 | x8 | x8 | x8 | x8 | x8 | x8 | A,,,6 z2 | x8 | x8 | x8 | x8 | x8 | x8 | x8 | x8 | %73
 x8 | x8 | x8 | x8 | x8 | x8 | x8 | x8 | x8 | x8 | x8 | x8 | x8 | x8 | x8 | x8 | x8 | x8 | x8 | %92
 x8 | x8 | x8 | x8 | A,,,6 x2 |[K:C] x8 | x8 | x8 | x8 | x8 | x8 | x8 | x8 | x8 | x8 | x8 | x8 | %109
 x8 | x8 | x8 | x8 | x8 | x8 | x8 | x8 | x8 | x8 | x8 | x8 | x8 | x8 | x8 | x8 | x8 | x8 | x8 | %128
 x8 | x8 | x8 | x8 | x8 | x8 | x8 | x8 | x8 | x8 | x8 | x8 | x8 | x8 | x8 | x8 | x8 | x8 | x8 | %147
 x8 | z2 E,,2 A,,,2 z2 | x8 | x8 | x8 | x8 | x8 | x8 | x8 | x8 | x8 | x8 | x8 | x8 | x8 | x8 | x8 | %164
 x8 | x8 | x8 | x8 | z2 E,,2 A,,,2 x2 |[K:A] x8 | x8 | x8 | x8 | x8 | x8 | x8 | x8 | x8 | x8 | x8 | %180
 x8 | x8 | x8 | x8 | z2 B,,2 E,,2 z2 | x8 | x8 | x8 | x8 | x8 | x8 | x8 | x8 | x8 | x8 | x8 | x8 | %197
 x8 | x8 | x8 | x8 | x8 | x8 | x8 | x8 | x8 | x8 | x8 | x8 | x8 | x8 | x8 | x8 | x8 | x8 | x8 | %216
 A,,,6 x2 |] %217

